X:133
T:Little Devil. THO5.133, The
M:2/4
L:1/8
B:Thompson's Complete Collection of 200 Favourite Dances Vol.5
F:https://www.libraryofdance.org/manuals/1780c-Thompson-Compleat-5.pdf
Z:vmp. Peter Dunk 2024
Q:1/4=120
K:A
AA/B/ cA|ecaf|edcB|cB/c/ AE|
AA/B/ cA|ecaf|edcB |A2 A2:|
|:EE/F/ GA|BE dc|BE dc|B>c B/A/G/F/|
EE/F/ GA|BE dc|Bc EG|A2 A,2:|
W:
W:Right hands across, half round ./.
W:Left hands back again ./:
W:lead down the middle, up again and cast off :/.
W:hands 6 round :/:

